X:206
U: ~ = !turn!
%%topmargin 3cm
T:Tommy Hill's Favorite Hornpipe
B:Traditional Irish Fiddle Tunes. Randy Miller and Jack Perron.
Z:Transcribed by Ralph Palmer
S:Michael Coleman
R:Hornpipe
L:1/8
M:C|
K:D
e3 f gfga | ((3bag) ((3agf) gfef | ((3gag) ((3fgf) ((3efe) df | ((3efe) ((3dcB) ((3ABA) FA |
[1 defd ceAF | GABG FADA | dcdB AGFE | ((3DED) CE D2 z2 :|
[2 dcdf ecAF | GFGB AGFE | DdcB ((3ABA) ((3GFE) | ((3DED) CE D2 z2 |]
|: dcdg ecAF | GFGB AF D2 | ((3gag) ((3fgf) ((3efe) df | ((3efe) ((3dcB) ((3ABA) FA |
defd ceAF | GABG FADA | dcdB AGFE | ((3DED) CE D2 z2 :|]
